X: 1
T:Flower Of Edinburgh,The. JMT023
M:4/4
L:1/8
S:J.Moore,Tyneside,1841.(15b)
R:Reel
O:England
A:Northumbria
N:or raant or oornpipe etc
H:184
Z:C.G.P
K:G
E|D2DEG2GA|B-GB-d cBAG|G-FG-E DEFA|A-Fd-FE2EF|D2DEG2GA|!B-GB-d efgf|dcBA
 G-FGA|B2G2G2:|
|:d2|gfga g-bag|fefg f-agf|!edef gfed|B2e2e2fg|dBGBd2cB|e-de-f agfe|dcBA
 (GFG)A|B2G2G2:|]
